!!!!SEGMENT: pl-sa--9-a-i-9--003_haydn-joseph--cassatio-in-g-adagio.krn
!!!cenid: 17xx:562
!!!COM: Haydn, Joseph
!!!COM-rismid: pe55803
!!!CDT: 1732/03/31-1809/05/31
!!!CNT: Austrian
!!!OPR: Cassatio in G
!!!OTL: Adagio
!!!OMV: 003
!!!PDT:
!!!AGN: Secular; Cassation
!!!SMS-siglum: PL-SA
!!!SMS-shelfmark: 9/A I 9
!!!SMS-shelfwork: 001-003 M
!!!SMS-variant:
!!!SMS-altvar:
!!!NIFC-rismid: 1001076831
!!!URL-scan: http://bc.bdsandomierz.pl/dlibra/publication/1275/edition/1243/content
!!!ONB-nifc: UWAGA: części Cassatio: Presto, Menuet, Adagio, Menuet, Presto
!!!key:
**kern	**kern	**kern	**kern	**dynam
*part4	*part3	*part2	*part1	*part1
*staff4	*staff3	*staff2	*staff1	*
*Iempty	*Iviola	*Ivioln	*Ivioln	*
*I"Baſso.	*I"Viola di Allto	*I"Violino 2do.	*I"Violino # Primo	*
*I'b	*I'vla	*I'vl 2	*I'vl 1	*
*group2	*group1	*group1	*group1	*
*clefF4	*clefC3	*clefG2	*clefG2	*
*k[]	*k[]	*k[]	*k[]	*
*C:	*C:	*C:	*C:	*
*M4/4	*M4/4	*M4/4	*M4/4	*
*met(c)	*met(c)	*met(c)	*met(c)	*
*2\right	*2\right	*	*2\right	*
!	!	!	!LO:TX:a:t=Adagio	!
!LO:TX:a:t=Adagio	!LO:TX:a:t=Adagio	!LO:TX:a:t=Adagio	!LO:TX:a:t=P:problem=metrum alla breve	!
8r	8r	8r	16ccc\LL	.
.	.	.	16gg\JJ	.
=1	=1	=1	=1	=1
8r	8r	1r	8gg\L	.
8c\L	8ee\L	.	8gg\J	.
8B\	8dd\	.	8gg\L	.
.	.	.	16qqbb/	.
8G\J	8b\J	.	16aa\L	.
.	.	.	32gg\L	.
.	.	.	32ff\JJJ	.
8r	8r	.	4ff\	.
!LO:TX:a:t=P:problem=mixed beam	!LO:TX:a:t=P:problem=mixed beam	!	!	!
8c\L	8cc\L	.	.	.
8C/	8c/	.	8ee\L	.
.	.	.	8qqgg/	.
8D/J	8b\J	.	16ff\L	.
.	.	.	32ee\L	.
.	.	.	32dd\JJJ	.
=2	=2	=2	=2	=2
8E\L	8cc\	2r	16.cc\LL	.
.	.	.	32ee\K	.
8e\	4cc\	.	16.gg\	.
.	.	.	32ccc\JJk	.
.	.	.	8qqgg/	.
8d\	.	.	4ff\	.
!LO:SIC:s=8B:v	!	!	!	!
8A\J	8b\	.	.	.
!LO:TX:a:t=P:problem=mixed beam	!	!LO:SIC:s=8.c:v	!	!
8c\L	8cc\	16.c/LL	4ee\	.
!	!	!LO:SIC:s=16e:v	!	!
.	.	32e/K	.	.
!	!	!LO:SIC:s=8.g:v	!	!
8E\	4c/	16.g/	.	.
!	!	!LO:SIC:s=16cc:v	!	!
.	.	32cc/JJk	.	.
.	.	8qqg/	.	.
8D\	.	4fT/	4r	.
8GG/J	8B/	.	.	.
=3	=3	=3	=3	=3
4C\	4c\	4e/	8r	.
.	.	.	8cc\L	.
8r	8r	4r	8cc\	.
8E\	8g\	.	8cc\J	.
!	!	!	!LO:SIC:s=16.b:v	!
(8F\L	8g\	4r	16b\LL	.
.	.	.	(32cc\L	.
.	.	.	32dd\JJ	.
8E\)	4g\	.	8cc\J)	.
!	!	!LO:SIC:s=16.B:v	!	!
(8F\	.	16B/LL	4r	.
.	.	(32c/L	.	.
.	.	32d/JJ	.	.
!	!	!LO:SIC:s=16c:v	!	!
8E\J)	8g\	8c/J)	.	.
=4	=4	=4	=4	=4
(8BB/L	8g\	4r	32dd\LLL	.
.	.	.	(32ee\J	.
.	.	.	16ff\J)	.
8C/)	4g\	.	8ee\J	.
!	!	!LO:SIC:s=16.d:v	!	!
(8BB/	.	16d/LL	4r	.
.	.	(32e/L	.	.
.	.	32f/JJ	.	.
!	!	!LO:SIC:s=8e:v	!	!
!	!	!LO:SIC:s=16d:v	!	!
8C/J)	8g\	8d/J)	.	.
8r	8r	2r	4gg\	.
8E\L	8B/L	.	.	.
*	*	*Xtuplet	*Xtuplet	*
!	!	!	!LO:TX:a:t=P:problem=triole bez oznaczenia	!
8E\	8B/	.	24ccc\LL	.
.	.	.	24bb\	.
.	.	.	24aa\JJ	.
8E\J	8B/J	.	24gg\LL	.
.	.	.	24ff\	.
.	.	.	24ee\JJ	.
=5	=5	=5	=5	=5
8r	8r	1r	24dd\LL	.
.	.	.	(24ee\	.
.	.	.	24ff\JJ)	.
8D\L	8c/L	.	4ff\	.
8G\	8B/	.	.	.
8G\J	8B/J	.	16ee\LL	.
.	.	.	16dd\JJ	.
4C/	4c\	.	16ee\LL	.
.	.	.	16gg\JJ	.
.	.	.	32ccc\LLL	.
.	.	.	32gg\	.
.	.	.	32eee\	.
.	.	.	32ccc\JJJ	.
8r	8r	.	8.ggg\L	.
8C/	8cc\	.	.	.
.	.	.	(32fff\LL	.
.	.	.	32eee\JJJ)	.
!	!	!	!LO:LB:g=original	!
=6	=6	=6	=6	=6
!LO:TX:a:t=P:problem=mixed beam	!	!	!	!
8G\L	8cc\L	4r	8eeet\L	.
8GG/J	8b\J	.	8ddd\J	.
8r	8r	(32cc\LLL	4r	.
.	.	32g\	.	.
.	.	32ee\	.	.
.	.	32cc\JJJ)	.	.
8C/	8c\	16gg\LL	.	.
.	.	(32ff\L	.	.
.	.	32ee\JJJ)	.	.
!LO:TX:a:t=P:problem=mixed beam	!	!	!	!
8G\L	8c\L	8ee\L	2r	.
16.GG/L	16.B\L	8dd\J	.	.
32G\JJk	32g\JJk	.	.	.
!LO:SIC:s=16D:v	!	!	!	!
16.D/LL	16.d/LL	4r	.	.
32C/K	32c/K	.	.	.
16.BB/	16.B/	.	.	.
32AA/JJk	32A/JJk	.	.	.
!LO:LB:g=original	!LO:LB:g=original	!	!	!
=7	=7	=7	=7	=7
!LO:TX:a:t=P:problem=mixed beam	!LO:TX:a:t=P:problem=mixed beam	!	!	!
8GG/L	8G/L	4r	(32gg\LLL	.
.	.	.	32ff#X\	.
.	.	.	32gg\	.
.	.	.	32aa\JJ)	.
8G\	8g\	.	8bb`\J	.
8B\	8b\	32g/LLL	4r	.
.	.	32f#X/	.	.
.	.	32g/	.	.
.	.	32a/JJ	.	.
8G\J	8g\J	8b`/J	.	.
!LO:TX:a:t=P:problem=mixed beam	!	!	!	!
8AA/L	8A\L	4r	(32ccc\LLL	.
.	.	.	32bb\	.
.	.	.	32aa\	.
.	.	.	32bb\JJ)	.
8F#X\	8f#X\	.	8aa`\J	.
8A\	8a\	32cc/LLL	4r	.
.	.	32b/	.	.
.	.	(32a/	.	.
.	.	32b/JJ	.	.
8c\J	8cc\J	8a/J)	.	.
!	!	!LO:LB:g=original	!	!
=8	=8	=8	=8	=8
!LO:TX:a:t=P:problem=mixed beam	!LO:TX:a:t=P:problem=mixed beam	!	!	!
8BB/L	8B\L	4r	(32ddd\LLL	.
.	.	.	32bb\	.
.	.	.	32ddd\	.
.	.	.	32bb\JJ)	.
8G\	8g\	.	8ddd\J	.
8B\	8b\	(32dd\LLL	4r	.
.	.	32b\	.	.
.	.	32dd\	.	.
.	.	32b\JJ)	.	.
8BB/J	8B/J	8dd`\J	.	.
!LO:TX:a:t=P:problem=mixed beam	!	!	!	!
8C/L	8c\L	4r	16ddd\LL	.
.	.	.	16ee\J	.
8c\	8cc\	.	8ee\J	.
8A\	8a\	16cc/LL	16ee\LL	.
.	.	16e/J	32ccc\L	.
.	.	.	32bb\JJJ	.
8A\J	8a\J	8e/J	(32ccc\LLL	.
.	.	.	32bb\)	.
.	.	.	(32ccc\	.
.	.	.	32bb\JJJ)	.
=9	=9	=9	=9	=9
8F#X\L	8f#X\L	16d/LL	16aa\LL	.
.	.	(32a/L	16dd\J	.
.	.	32g#X/JJJ)	.	.
8F#\	8f#\	(32a/LLL	8dd\J	.
.	.	32g#/	.	.
.	.	32a/	.	.
.	.	32b/JJJ)	.	.
!	!	!LO:SIC:s=16gn:v	!	!
8G\	8g\	16g#/LL	16dd\LL	.
.	.	16d/J	32bb\L	.
.	.	.	32aa#X\JJJ	.
8G\J	8g\J	8d/J	32bb\LLL	.
.	.	.	32aa#\	.
.	.	.	32bb\	.
.	.	.	32aa#\JJJ	.
8E\L	8e\L	16c/LL	16bb\LL	.
!	!	!LO:SIC:s=16gn:v	!	!
.	.	32g#/L	16cc\J	.
.	.	32f#X/JJJ	.	.
!	!	!LO:SIC:s=32gn:v	!	!
8E\	8e\	32g#/LLL	8cc\J	.
.	.	(32f#X/	.	.
!	!	!LO:SIC:s=32gn:v	!	!
.	.	32g#/	.	.
.	.	32a/JJJ)	.	.
8F#X\	8f#X\	16a/LL	16cc\LL	.
.	.	16c/	32aan\L	.
.	.	.	32gg#X\JJJ	.
8F#\J	8f#\J	16B/	32aa\LLL	.
.	.	.	(32ff#X\	.
.	.	16A/JJ	32dd\	.
.	.	.	32cc\JJJ)	.
=10	=10	=10	=10	=10
4G\	4g\	8.G/L	16dd\LL	.
.	.	.	16gg\	.
.	.	.	16ff#X\	.
.	.	16g/Jk	16ee\JJ	.
4r	4r	16f#X/LL	(16dd\LL	.
.	.	16e/	16cc\	.
.	.	16d/	16b\)	.
.	.	16c/JJ	16a\JJ	.
!	!	!	!LO:LB:g=original	!
2r	2r	16B/LL	(16g\LL	.
.	.	16A/	16cc\)	.
.	.	16G/	(16b\	.
.	.	16c/JJ	16ee\JJ)	.
.	.	16B/LL	(16dd\LL	.
.	.	16e/	16gg\)	.
.	.	16d/	(16ff#X\	.
.	.	16f#X/JJ	16ccc\JJ)	.
=11	=11	=11	=11	=11
2r	2r	(16g\LL	16bb\LL	.
.	.	16cc\	16eee\	.
.	.	16b\	16ddd\	.
.	.	16ee\JJ)	16ggg\JJ	.
.	.	16dd\KL	16ggg\KL	.
.	.	8bb\	8ggg\	.
.	.	16aa\Jk	16ggg\Jk	.
16r	16r	8g/	2ggg\	.
(16E\LL	(16cc\LL	.	.	.
16D\	16b\	8r	.	.
16c\JJ)	16ee\JJ)	.	.	.
16B\LL	16dd\LL	4r	.	.
(16E\	16cc\	.	.	.
16D\	16b\	.	.	.
16C\JJ)	16a\JJ	.	.	.
!	!	!LO:LB:g=original	!	!
=12	=12	=12	=12	=12
8BB/L	8g\	1r	16ggg\LL	.
.	.	.	16ddd\JJ	.
8C/	4g\	.	32ccc\LLL	.
.	.	.	32bb\	.
.	.	.	32aa\	.
.	.	.	32gg\JJJ	.
8D/	.	.	4aaT\	.
8D/J	8f#X\	.	.	.
8G\	8g\	.	32bb\LLL	.
.	.	.	32ddd\	.
.	.	.	32ggg\	.
.	.	.	32ddd\JJJ	.
8r	8r	.	32ggg\LLL	.
.	.	.	32ddd\	.
.	.	.	32bb\	.
.	.	.	32gg\JJJ	.
8D\	8g\L	.	4aaT\	.
!LO:SIC:s=4D:v	!	!	!	!
8D\	8f#X\J	.	.	.
=13	=13	=13	=13	=13
!LO:TX:a:t=P:problem=mixed beam	!LO:TX:a:t=P:problem=mixed beam	!	!	!
8G\L	8g\L	(32b\LLL	8gg\	.
.	.	32ee\	.	.
.	.	32gg\	.	.
.	.	32dd\JJJ)	.	.
8B\	8b\	32gg\LLL	8r	.
.	.	(32ee\	.	.
.	.	32b\	.	.
.	.	32g\JJJ)	.	.
8d\	8dd\	4aT/	4f#Xt/	.
8D/J	8d/J	.	.	.
!LO:TX:a:t=P:problem=mixed beam	!	!	!	!
8G\L	4g\	4g/	4g/	.
8D\	.	.	.	.
8GG/J	4r	4r	4r	.
8r	.	.	.	.
!LO:PB:g=original	!	!	!	!
=14||;	=14||;	=14||;	=14||;	=14||
!LO:TX:a:t=P:problem=brakujący takt	!	!	!	!
8ryy	8r	8r	16gg\LL	.
.	.	.	16dd\JJ	.
=15	=15	=15	=15	=15
8r	8r	1r	8dd\L	.
8G\L	8b\L	.	8dd\J	.
8F#X\	8a\	.	8dd\L	.
!	!LO:LB:g=original	!	!LO:SIC:s=q8ff#:v	!
.	.	.	8qff/	.
8D\J	8f#X\J	.	24ee\L	.
.	.	.	24dd\	.
.	.	.	24cc\JJ	.
8r	8r	.	4cc\	.
!LO:TX:a:t=P:problem=mixed beam	!LO:TX:a:t=P:problem=mixed beam	!	!	!
8G\L	8g\L	.	.	.
!LO:SIC:s=8GG:v	!	!	!	!
8AA/	8G/	.	8b\L	.
!	!	!	!LO:TX:a:t=P:problem=klamra łukowa, kropka zamiast numeru	!
.	.	.	8qdd/	.
8C/J	8f#X\J	.	24cc\L	.
.	.	.	24b\	.
.	.	.	24a\JJ	.
!	!	!	!LO:LB:g=original	!
=16	=16	=16	=16	=16
!	!	!	!LO:TX:a:t=P:problem=klamra łukowa, kropka zamiast numeru	!
8BB/L	8g\	2r	24g\LL	.
.	.	.	24b\	.
.	.	.	24dd\JJ	.
!	!	!	!LO:TX:a:t=P:problem=klamra łukowa, kropka zamiast numeru	!
8GG/	4g\	.	24gg\LL	.
.	.	.	24bb\	.
.	.	.	24ddd\JJ	.
8AA/	.	.	8ddd\L	.
8D/J	8f#X\	.	8cccT\J	.
!LO:SIC:s=8GG:v	!	!LO:TX:b:t=P:problem=klamra łukowa, kropka zamiast numeru	!	!
!LO:TX:a:t=P:problem=mixed beam	!	!LO:TX:a:t=P:problem=triole nieoznaczone&colon;global	!	!
8AA/L	8g\	24G/LL	4bb\	.
.	.	24B/	.	.
.	.	24d/JJ	.	.
!	!	!LO:TX:b:t=P:problem=klamra łukowa, kropka zamiast numeru	!	!
8G\	4g\	24g/LL	.	.
.	.	24b/	.	.
.	.	24dd/JJ	.	.
8A\	.	8dd\L	4r	.
8D\J	8f#X\	8ccT\J	.	.
=17	=17	=17	=17	=17
4G\	8g\	4b\	8r	.
.	4b\	.	4gg\	.
4Fn\	.	4r	.	.
.	.	.	8qaa/	<
.	8b\	.	16gg\LL	.
.	.	.	32ff\L	.
.	.	.	32ee\JJJ	.
*	*tremolo	*	*	*
.	.	.	8qqdd/	.
*	*tremolo	*	*	*
8E\L	8cc\L	2r	4cc\	.
8E\	8cc\	.	.	.
!	!	!	!LO:TX:a:t=P:problem=klamra łukowa	!
8E\	8cc\	.	24bb-X\LL	[
.	.	.	24aa\	.
.	.	.	24gg\JJ	.
!	!	!	!LO:TX:a:t=P:problem=klamra łukowa	!
8E\J	8cc\J	.	24ddd\LL	.
.	.	.	24ccc\	.
.	.	.	24bb-\JJ	.
*	*Xtremolo	*	*	*
*	*Xtremolo	*	*	*
=18	=18	=18	=18	=18
!	!	!	!LO:TX:a:t=P:problem=łuk na kresce	!
8F\	4f\	4r	[1ccc	.
8r	.	.	.	.
8E\L	4r	(32g/LLL	.	.
.	.	32f/	.	.
.	.	32g/	.	.
.	.	32a/JJ)	.	.
8G\J	.	8b-X`/J	.	.
!LO:TX:a:t=P:problem=mixed beam	!	!	!	!
8F\L	4r	(32a/LLL	.	.
.	.	32g/	.	.
.	.	32a/	.	.
.	.	32b-/JJ)	.	.
8A\	.	8cc`/J	.	.
8c\	(32g\LLL	(32e/LLL	.	.
.	32f\	32d/	.	.
.	32g\	32e/	.	.
.	32a\JJ)	32f/JJ)	.	.
8C/J	8b-X`\J	8g`/J	.	.
=19	=19	=19	=19	=19
!LO:TX:a:t=P:problem=mixed beam	!	!	!	!
8F\L	(32a\LLL	(32f/LLL	2ccc\]	.
.	32g\	32e/	.	.
.	32a\	32f/	.	.
!	!LO:SIC:s=32b-:v	!	!	!
.	32b\JJ)	32g/JJ)	.	.
8FF/J	8cc`\J	8a/J	.	.
8r	(32e\LLL	(32g/LLL	.	.
.	32d\	32f/	.	.
.	32e\	32g/	.	.
.	32f\JJ)	32a/JJ)	.	.
8C/	8g`\J	8b-X/J	.	.
!LO:TX:a:t=P:problem=mixed beam	!	!LO:LB:g=original	!	!
8F\L	8f\	8a/	24ccc\LL	.
.	.	.	24fff\	.
.	.	.	24eee\JJ	.
8B-X\	4f\	8r	24ddd\LL	.
.	.	.	24ccc\	.
.	.	.	24bb-X\JJ	.
8c\	.	4r	8aa\L	.
8C/J	8e\	.	8ggT\J	.
=20	=20	=20	=20	=20
!LO:TX:a:t=P:problem=mixed beam	!	!	!	!
8F\L	8f\	24cc\LL	4ff\	.
.	.	24ff\	.	.
.	.	24ee\JJ	.	.
8B-X\	4F/	24dd\LL	.	.
.	.	24cc\	.	.
.	.	24b-X\JJ	.	.
8c\	.	8a/L	4r	.
8C/J	8E/	8gT/J	.	.
8F\L	4F/	4f/	2r	.
8C\J	.	.	.	.
4FF/	4r	4r	.	.
=21	=21	=21	=21	=21
4r	4r	4r	(32aa\LLL	.
.	.	.	32gg\	.
.	.	.	32aa\	.
.	.	.	32bb-X\JJ)	.
.	.	.	8ccc`\J	.
32c\LLL	32cc\LLL	32a/LLL	4r	.
!	!LO:TX:a:t=♭	!	!	!
(32B\	32b-y\	32g/	.	.
32A\	(32a\	(32a/	.	.
32G\JJ)	32g\JJ)	32b-X/JJ)	.	.
8F#X'\J	8f#X`\J	8cc`/J	.	.
4r	4r	4r	(32aa\LLL	.
.	.	.	32gg\	.
.	.	.	32aa\	.
.	.	.	32bb-X\JJ)	.
.	.	.	8ccc\J	.
(32A\LLL	(32a\LLL	32a/LLL	4r	.
32G\	32g\	(32g/	.	.
32F#X\	32f#X\	32a/	.	.
32E\JJ)	32e\JJ)	32b-/JJ)	.	.
8D`\J	8d`\J	8cc'/J	.	.
!	!LO:LB:g=original	!	!LO:LB:g=original	!
=22	=22	=22	=22	=22
8r	16a\LL	1r	16ccc\LL	.
.	16cc\JJ	.	16ee-X\JJ	.
8F#X\L	4cc\	.	4ee-\	.
8F#\	.	.	.	.
8F#\J	16b-X\LL	.	16dd\LL	.
.	16a\JJ	.	16cc\JJ	.
!LO:TX:a:t=P:problem=mixed beam	!	!	!	!
8G\L	4.g\	.	32b-X\LLL	.
.	.	.	32a\	.
.	.	.	32b-\	.
.	.	.	32cc\JJJ	.
8BB-X/	.	.	16.dd\LL	.
.	.	.	32g\JJk	.
8C/	.	.	8.a\L	.
8D/J	8f#X\	.	.	.
.	.	.	32b-X\LL	.
.	.	.	32cc\JJJ	.
!LO:LB:g=original	!	!	!	!
=23	=23	=23	=23	=23
4G\	4g\	2r	32b-X/LLL	.
.	.	.	32a/	.
.	.	.	32g/	.
.	.	.	32a/JJ	.
.	.	.	8g/J	.
4r	4r	.	4G/ 4d 4b- 4gg	.
8r	8r	4G/ 4d 4b-X 4gg	2r	.
16r	16r	.	.	.
16E-X\	16e-X\	.	.	.
16.D/LL	16.d/LL	4r	.	.
32C/K	32c/K	.	.	.
!	!LO:SIC:s=16.B-:v	!	!	!
16.BB-X/	16.B/	.	.	.
32AA/JJk	32A/JJk	.	.	.
=24	=24	=24	=24	=24
4GG/	4G/	4r	(32gg\LLL	.
.	.	.	32ff#X\	.
.	.	.	32gg\	.
.	.	.	32aa\JJ)	.
.	.	.	8bb-X`\J	.
32B-X\LLL	32b-X\LLL	32g/LLL	4r	.
(32A\	(32a\	(32f#X/	.	.
32G\	32g\	32g/	.	.
32F\JJ)	32f\JJ)	32a/JJ)	.	.
8En\J	8en`\J	8b-X`/J	.	.
4r	4r	4r	(32gg\LLL	.
.	.	.	32ff#X\	.
.	.	.	32gg\	.
.	.	.	32aa\JJ)	.
.	.	.	8bb-`\J	.
32G\LLL	(32g\LLL	32g/LLL	4r	.
!LO:SIC:s=32F#:v	!LO:SIC:s=32f#:v	!	!	!
(32F\	32f\	(32f#/	.	.
32E\	32e\	32g/	.	.
32D\JJ)	32d\JJ)	32a/JJ)	.	.
8C`\J	8c'\J	8b-X`/J	.	.
=25	=25	=25	=25	=25
8r	16g\LL	1r	16bb\LL	.
.	16b-X\JJ	.	16dd\JJ	.
8E\L	4b-\	.	4dd\	.
8E\	.	.	.	.
8E\J	16a\LL	.	(16cc\LL	.
.	16g\JJ	.	16b-X\JJ)	.
!LO:TX:a:t=P:problem=mixed beam	!	!	!	!
8F\L	4.f\	.	32a/LLL	.
.	.	.	32g/	.
.	.	.	32a/	.
.	.	.	32b-/JJJ	.
8AA/	.	.	16.cc/LL	.
.	.	.	32f/JJk	.
8BB-X/	.	.	8.g/L	.
8C/J	8e\	.	.	.
.	.	.	32a/LL	.
.	.	.	32b-/JJJ	.
=26	=26	=26	=26	=26
!LO:TX:a:t=P:problem=mixed beam	!	!	!	!
8F\L	4f\	2r	32a/LLL	.
.	.	.	32g/	.
.	.	.	32f/	.
.	.	.	32g/JJ	.
8FF/J	.	.	8f/J	.
4r	4r	.	4f/ 4cc 4aa	.
8r	8r	4f/ 4cc 4aa	2r	.
16r	16r	.	.	.
16D/	16d\	.	.	.
16.C/LL	16.c/LL	4r	.	.
32BB-X/K	32B-X/K	.	.	.
!	!LO:SIC:s=16g:v	!	!	!
16.AA/	16.A/	.	.	.
32GG/JJk	32G/JJk	.	.	.
!	!	!	!LO:LB:g=original	!
=27	=27	=27	=27	=27
!LO:TX:a:t=P:problem=mixed beam	!LO:TX:a:t=P:problem=mixed beam	!	!	!
8FF/L	8F/L	0r	8aa\	.
8G\	8cc\	.	4aa\	.
8G\	8cc\	.	.	.
8G\J	8cc\J	.	(16bbn\LL	.
.	.	.	16ccc\JJ)	.
!LO:TX:a:t=P:2\:global:problem	!	!	!	!
*tremolo	*tremolo	*	*	*
*tremolo	*	*	*	*
8E\L	8cc\L	.	16ccc\LL	.
.	.	.	16gg\JJ	.
8E\	8cc\	.	4gg\	.
8E\	8cc\	.	.	.
8E\J	8cc\J	.	32ff\LLL	.
.	.	.	32ee\	.
.	.	.	(32dd\	.
.	.	.	32cc\JJJ)	.
*Xtremolo	*	*	*	*
*Xtremolo	*Xtremolo	*	*	*
!	!LO:LB:g=original	!	!	!
=28	=28	=28	=28	=28
8E\L	8cc\L	.	8ff\	.
8E\	8cc\	.	4ff\	.
8G\	8bn\	.	.	.
8G\J	8b\J	.	24aa\LL	.
.	.	.	24gg\	.
.	.	.	24ff\JJ	.
!	!	!	!LO:TX:a:t=P:problem=klamra łukowa	!
4C/	4cc\	.	24ee\LL	.
.	.	.	24ff\	.
.	.	.	24ee\JJ	.
!	!	!	!LO:TX:a:t=P:problem=klamra łukowa	!
.	.	.	24gg\LL	.
.	.	.	24aa\	.
.	.	.	24gg\JJ	.
!	!	!	!LO:TX:a:t=P:problem=klamra łukowa	!
8r	8r	.	24ccc\LL	.
.	.	.	24bb\	.
.	.	.	24aa\JJ	.
!	!	!	!LO:TX:a:t=P:problem=klamra łukowa	!
8C/	8a\	.	24gg\LL	.
.	.	.	24ff\	.
.	.	.	24ee\JJ	.
!	!	!LO:LB:g=original	!	!
=29	=29	=29	=29	=29
!LO:TX:a:t=P:problem=mixed beam	!	!	!	!
8G\L	8cc\L	4r	8eet\L	.
8GG/J	8b\J	.	8dd\J	.
!	!	!LO:TX:b:t=P:problem=klamra łukowa, kropka zamiast numeru	!	!
8r	4r	24cc/LL	4r	.
.	.	24b/	.	.
.	.	24a/JJ	.	.
!LO:TX:a:t=P:problem=mixed beam	!	!LO:TX:b:t=P:problem=klamra łukowa, kropka zamiast numeru	!	!
8C\L	.	24g/LL	.	.
.	.	24f/	.	.
.	.	24e/JJ	.	.
8G\	8c/L	8e/L	4r	.
8GG/J	8B/J	8d/J	.	.
4r	4r	4r	8r	.
.	.	.	16ccc\LL	.
.	.	.	16gg\JJ	.
=30	=30	=30	=30	=30
4C/	4e\	4r	8gg\L	.
.	.	.	8gg\J	.
4r	4r	8r	8gg\L	.
!	!	!	!LO:TX:a:t=P:problem=klamra łukowa	!
.	.	.	16qqgg/	.
.	.	16ccc\LL	24aa\L	.
.	.	.	24gg\	.
.	.	16gg\JJ	.	.
.	.	.	24ff\JJ	.
4C/	4e\	8gg\L	8ee\L	.
.	.	8gg\J	8ee\J	.
4r	4r	8gg\L	8ee\L	.
!	!	!	!LO:TX:a:t=P:problem=klamra łukowa	!
.	.	8qqbb/	8qqgg/	.
.	.	16aa\L	24gg\L	.
.	.	.	24ee\	.
.	.	32gg\L	.	.
.	.	.	24dd\JJ	.
.	.	32ff\JJJ	.	.
!LO:LB:g=original	!	!	!	!
=31	=31	=31	=31	=31
4C/	4e\	8ee\L	8cc\L	.
.	.	8ee\J	8cc\J	.
4r	4r	8ee\L	8cc\L	.
.	.	8qqgg/	8qbb/	.
!	!	!	!LO:TX:a:t=P:problem=klamra łukowa	!
.	.	24ff\L	24aa\L	.
.	.	24ee\	24gg\	.
.	.	24dd\JJ	24ff\JJ	.
4C/	4e\	8cc\L	8ee\L	.
.	.	8cc\J	8ee\J	.
8r	8r	8cc\L	8ee\L	.
.	.	8qqee/	8qgg/	.
!	!	!	!LO:TX:a:t=P:problem=klamra łukowa	!
8G\	8g\	24dd\L	24ff\L	.
.	.	24cc\	24ee\	.
.	.	24b\JJ	24dd\JJ	.
!	!	!	!LO:LB:g=original	!
=32	=32	=32	=32	=32
8E\L	8cc\	4cc\	16.cc\LL	.
.	.	.	32ee\K	.
8e\	4cc\	.	16.gg\	.
.	.	.	32ccc\JJk	.
.	.	.	8qqgg/	.
8d\	.	4r	4ffT\	.
8G\J	8b\	.	.	.
!LO:TX:a:t=P:problem=mixed beam	!	!LO:SIC:s=8.c:v	!	!
8c\L	8cc\	16.c/LL	4ee\	.
!	!	!LO:SIC:s=16e:v	!	!
.	.	32e/K	.	.
!	!	!LO:SIC:s=8.g:v	!	!
8E\	4c/	16.g/	.	.
!	!	!LO:SIC:s=16cc:v	!	!
.	.	32cc/JJk	.	.
.	.	8qqg/	.	.
8D\	.	4f/	4r	.
8GG/J	8B/	.	.	.
=33	=33	=33	=33	=33
4C\	8c\	4e/	8r	.
.	8r	.	8cc\L	.
8r	8r	4r	8cc\	.
8E\	8g\	.	8cc\J	.
!	!	!	!LO:SIC:s=16.b:v	!
(8F\L	8g\	4r	16b\LL	.
.	.	.	(32cc\L	.
.	.	.	32dd\JJ)	.
8E\)	4g\	.	8cc`\J	.
(8F\	.	16.B/LL	4r	.
.	.	64c/LL	.	.
.	.	64d/JJJJ	.	.
8E\J)	8g\	8c/	.	.
=34	=34	=34	=34	=34
!	!	!	!LO:SIC:s=16.d:v	!
(8BB/L	8g\	4r	(16dd\LL	.
.	.	.	32ee\L	.
.	.	.	32ff\JJ)	.
8C/)	4g\	.	8ee`\J	.
(8BB/	.	16.B/LL	4r	.
.	.	(64d/LL	.	.
.	.	64e/JJJJ	.	.
8C/J)	8g\	8e/)	.	.
8r	8r	2r	4gg\	.
8E\L	8c\L	.	.	.
8E\	8c\	.	24ccc\LL	.
.	.	.	24bb\	.
.	.	.	24aa\JJ	.
8E\J	8c\J	.	24gg\LL	.
.	.	.	24ff\	.
.	.	.	24ee\JJ	.
=35	=35	=35	=35	=35
8r	8r	1r	24dd\LL	.
.	.	.	24ee\	.
.	.	.	24ff\JJ	.
8D\	8c/L	.	4ff\	.
8G\L	8B/	.	.	.
8G\J	8B/J	.	16ee\LL	.
.	.	.	16dd\JJ	.
!	!LO:LB:g=original	!	!	!
4C/	4c\	.	16ee\LL	.
.	.	.	16gg\JJ	.
.	.	.	(32ccc\LLL	.
.	.	.	32gg\)	.
.	.	.	(32eee\	.
.	.	.	32ccc\JJJ)	.
8r	8r	.	8.ggg\L	.
8C/	8cc\	.	.	.
.	.	.	(32fff\LL	.
.	.	.	32eee\JJJ)	.
=36	=36	=36	=36	=36
!LO:TX:a:t=P:problem=mixed beam	!	!	!	!
8G\L	8cc\L	4r	8ccc\L	.
8GG/J	8b\J	.	8bb\J	.
8r	8r	(32cc\LLL	4r	.
.	.	32g\	.	.
.	.	32ee\	.	.
.	.	32cc\JJJ)	.	.
8C/	8c\	16.gg\LL	.	.
.	.	(64ee\LL	.	.
.	.	64dd\JJJJ)	.	.
!LO:TX:a:t=P:problem=mixed beam	!	!	!	!
8G\L	8c\L	8eet\L	2r	.
16.GG/L	16.B\L	8dd\J	.	.
32G\JJk	32a\JJk	.	.	.
16.G\LL	16.g\LL	4r	.	.
32F\K	32f\K	.	.	.
16.E\	16.e\	.	.	.
32D\JJk	32d\JJk	.	.	.
=37	=37	=37	=37	=37
!LO:TX:a:t=P:problem=mixed beam	!	!	!	!
8C/L	8c\L	4r	32dd\LLL	.
.	.	.	(32b\	.
.	.	.	32cc\	.
.	.	.	32dd\JJ)	.
8c\	8cc\	.	8ee`\J	.
8e\	8ee\	32c/LLL	4ryy	.
.	.	(32B/	.	.
.	.	32c/)	.	.
.	.	32d/JJ	.	.
!	!	!LO:SIC:s=16e:v	!	!
8c\J	8cc\J	8e/J	.	.
8D\L	8d\L	4r	(32ff\LLL	.
.	.	.	32ee\	.
.	.	.	32dd\	.
.	.	.	32ee\JJ)	.
8B\	8b\	.	8dd`\J	.
8d\	8dd\	32f/LLL	4r	.
.	.	32e/	.	.
.	.	32d/	.	.
.	.	32e/JJ	.	.
8F\J	8f\J	8d/J	.	.
!	!	!	!LO:LB:g=original	!
=38	=38	=38	=38	=38
!LO:TX:a:t=P:problem=mixed beam	!	!	!	!
8E\L	8e\L	4r	(32gg\LLL	.
.	.	.	32ee\)	.
.	.	.	(32gg\	.
.	.	.	32ee\JJ)	.
8c\	8cc\	.	8gg`\J	.
8e\	8ee\	32g/LLL	4r	.
.	.	32e/	.	.
.	.	32g/	.	.
.	.	32e/JJ	.	.
8E/J	8e\J	8g/J	.	.
!	!	!	!LO:TX:a:t=P:problem=mixed beam	!
8G\L	8f\L	4r	16gg\LL	.
.	.	.	16a/J	.
8F\	8f\	.	8a/J	.
8D\	8d\	16ff\LL	16a\LL	.
.	.	16a\J	32ff\L	.
.	.	.	32ee\JJJ	.
8d\J	8dd\J	8a\J	(32ff\LLL	.
.	.	.	32ee\)	.
.	.	.	(32ff\	.
.	.	.	32ee\JJJ)	.
=39	=39	=39	=39	=39
!LO:TX:a:t=P:problem=wykreślone 4 nuty z taktu (korekta)	!	!	!LO:TX:a:t=P:problem=mixed beam	!
8B\L	8b\L	16g\LL	(16ff\LL	.
.	.	(32dd\L	16f/J)	.
.	.	32cc#X\JJJ)	.	.
8B\	8b\	(32dd\LLL	8f`/J	.
.	.	32cc#\	.	.
.	.	32dd\	.	.
.	.	32ff\JJJ)	.	.
8c\	8cc\	16ee\LL	24g\LL	.
.	.	.	24ee\	.
.	.	16g\J	.	.
.	.	.	24dd#X\JJ	.
8c\J	8cc\J	8g\J	(32ee\LLL	.
.	.	.	32dd#\)	.
.	.	.	(32ee\	.
.	.	.	32dd#\JJJ)	.
!LO:LB:g=original	!	!	!LO:TX:a:t=P:problem=mixed beam	!
8A\L	8a\L	16f\LL	(16ee\LL	.
.	.	(32ccn\L	16f/J)	.
.	.	32b\JJJ)	.	.
8A\	8a\	(32cc\LLL	8f`/J	.
.	.	32b\	.	.
.	.	32cc\	.	.
.	.	32ee\JJJ)	.	.
8B\	8b\	16dd/LL	16f\LL	.
!	!	!	!LO:SIC:s=32ddn:v	!
.	.	16f/	(32dd#\L	.
.	.	.	32cc#X\JJJ)	.
!	!	!	!LO:SIC:s=32ddn:v	!
8B\J	8b\J	16f/	32dd#\LLL	.
.	.	.	(32b\	.
.	.	16d/JJ	32g\	.
.	.	.	32f\JJJ)	.
=40	=40	=40	=40	=40
!	!	!LO:TX:a:t=P:problem=mixed beam	!	!
4c\	4cc\	8.c/L	16e/LL	.
.	.	.	16cc/	.
.	.	.	16b/	.
.	.	16cc\Jk	16a/JJ	.
4r	4r	(16b/LL	16g/LL	.
.	.	16a/	16f/	.
.	.	16g/	16e/	.
.	.	16f/JJ)	16d/JJ	.
2r	2r	16e/LL	(16c/LL	.
.	.	16d/	16f/)	.
.	.	16c/	(16e/	.
.	.	16f/JJ	16cc/JJ)	.
.	.	16e/LL	(16g\LL	.
.	.	16a/	16cc\)	.
.	.	16g/	(16b\	.
.	.	16cc/JJ	16ee\JJ)	.
=41	=41	=41	=41	=41
2r	2r	(16cc\LL	16dd\LL	.
.	.	16ff\	16aa\	.
.	.	16ee\)	16gg\	.
.	.	16aa\JJ	16ccc\JJ	.
.	.	16gg\LL	16ccc\KL	.
.	.	16ee\J	8ccc\	.
.	.	8ee\J	.	.
.	.	.	16ccc\Jk	.
!	!	!	!LO:TX:a:t=P:problem=łuk przez kreskę	!
16r	16r	8c/	(2ccc\	.
16F\LL	(16a\LL	.	.	.
16E\	16g\	8r	.	.
16A\JJ	16f\JJ)	.	.	.
16G\LL	16e\LL	4r	.	.
!	!LO:SIC:s=32a:v	!	!	!
16F\	(16a\	.	.	.
!	!LO:SIC:s=32g:v	!	!	!
16E\	16g\	.	.	.
16D\JJ	16f\JJ)	.	.	.
!	!	!	!LO:PB:g=original	!
=42	=42	=42	=42	=42
!LO:TX:a:t=P:problem=mixed beam	!	!	!	!
8E\L	8e\	1r	16aa\LL)	.
.	.	.	16gg\JJ	.
8F\	4cc\	.	(32ff\LLL	.
.	.	.	32ee\	.
.	.	.	32dd\)	.
.	.	.	32cc\JJJ	.
8G\	.	.	4ddT\	.
8GG/J	8b\	.	.	.
4C/	8cc\	.	(32ee\LLL	.
.	.	.	32gg\	.
.	.	.	32ccc\)	.
.	.	.	32gg\JJJ	.
.	8r	.	32ccc\LLL	.
.	.	.	32gg\	.
.	.	.	32ee\	.
.	.	.	32cc\JJJ	.
!LO:TX:a:t=P:problem=mixed beam	!LO:SIC:s=4cc:v	!	!	!
8G\L	8cc\	.	4ddT\	.
8GG/J	8b\	.	.	.
=43	=43	=43	=43	=43
!LO:TX:a:t=P:problem=mixed beam	!LO:TX:a:t=P:problem=mixed beam	!	!	!
8C\L	8cc\L	(32e/LLL	8cc\	.
.	.	32g/	.	.
.	.	32cc/	.	.
.	.	32g/JJJ)	.	.
8E\	8c/	32cc/LLL	8r	.
.	.	32b/	.	.
.	.	32g/	.	.
.	.	32c/JJJ	.	.
8G\	8g\	4dT/	8G/ 8d 8b	.
8GG/J	8G/J	.	8r	.
8C/L	8c/L	4c/	4G/ 4e 4cc	.
8GG/	8G/	.	.	.
8C/J	8c/J	8r	8r	.
==;	==;	==;	==	==
*-	*-	*-	*-	*-
!!!system-decoration: [(g1)][(g2)]
!!!AIN: 1 empty 1 viola 2 violn
!!!ENC: Anna Matuszewska
!!!END: 2020-12-04
!!!ENC: Kamil Watkowski
!!!END: 2020-05-30
